Catalina-dark/actions/22/tool-measure.svg

<svg width="22" height="22" viewBox="3 3 16 16" xmlns="http://www.w3.org/2000/svg">
<defs>
<style id="current-color-scheme" type="text/css">.ColorScheme-Text {
        color:#f2f2f2;
      }</style>
</defs>
<path class="ColorScheme-Text" d="m3 3v7h16v-7h-16zm1 1h2v2h1v-2h1v3h1v-3h1v2h1v-2h1v2h1v-2h1v3h1v-3h3v5h-14v-5zm2.707 9-3 3 3 3v-6zm9.293 0v6l3-3-3-3z" fill="currentColor"/>
</svg>

<svg xmlns="http://www.w3.org/2000/svg" viewBox="0 0 22 22">
  <defs id="defs3051">
    <style type="text/css" id="current-color-scheme">
      .ColorScheme-Text {
        color:#f2f2f2;
      }
      </style>
  </defs>
 <path 
    style="fill:currentColor;fill-opacity:1;stroke:none" 
    d="M 3 3 L 3 10 L 4 10 L 19 10 L 19 9 L 19 4 L 19 3 L 4 3 L 3 3 z M 4 4 L 5 4 L 6 4 L 6 6 L 7 6 L 7 4 L 8 4 L 8 7 L 9 7 L 9 4 L 10 4 L 10 6 L 11 6 L 11 4 L 12 4 L 12 6 L 13 6 L 13 4 L 14 4 L 14 7 L 15 7 L 15 4 L 17 4 L 18 4 L 18 9 L 4 9 L 4 7 L 4 4 z M 6.7070312 13 L 3.7070312 16 L 6.7070312 19 L 6.7070312 13 z M 16 13 L 16 19 L 19 16 L 16 13 z "
    class="ColorScheme-Text"
    />  
</svg>
